client/public/img/game/fall/buildings/plumpkin_bunker_vault_ceiling.svg

<?xml version="1.0" encoding="UTF-8" standalone="no"?>
<!-- Created with Inkscape (http://www.inkscape.org/) -->

<svg
   width="631.51941"
   height="371.07895"
   viewBox="0 0 167.08951 98.181305"
   version="1.1"
   id="svg1"
   xmlns="http://www.w3.org/2000/svg"
   xmlns:svg="http://www.w3.org/2000/svg">
  <defs
     id="defs1" />
  <g
     id="layer1"
     transform="translate(-21.431269,-99.483366)">
    <g
       id="g1"
       transform="translate(-281.98678,-649.42281)">
      <g
         id="g7"
         transform="matrix(0,-1.3314489,1.3733969,0,393.18544,1392.3386)"
         style="stroke-width:0.728987">
        <path
           id="rect1"
           style="fill:none;fill-opacity:1;stroke-width:0.0778616"
           d="m 482.76863,-9.1164388 v 0 V -65.09449 H 409.7925 V 55.840346 h 39.83365 23.80875 9.33373 z" />
        <g
           id="g27"
           transform="matrix(0,0.92819566,-0.85641866,0,651.14361,-269.91818)"
           style="stroke:none;stroke-width:0.729081;stroke-dasharray:none;stroke-opacity:1">
          <path
             id="rect2"
             style="fill:#4b4b4b;fill-opacity:1;stroke:none;stroke-width:0.729081;stroke-dasharray:none;stroke-opacity:1"
             d="m 282.44163,197.01029 v 0 h -60.29296 v 83.34013 h 128.38854 v -10.89753 -60.48675 -11.95585 z" />
        </g>
        <path
           d="m 409.8964,-52.440225 17.07998,-12.542077 h 5.49758 l -22.57756,16.579019 z m 39.11755,-12.542077 h 5.49745 l -44.615,32.761406 v -4.036849 z m 27.53472,0 -66.65227,48.943611 v -4.036849 l 61.15475,-44.906762 z m 6.32937,11.534706 L 409.8964,0.14378888 V -3.8931523 l 72.98164,-53.5913837 z m -72.98164,65.736647 72.98164,-53.591384 v 4.036941 L 409.8964,16.325993 Z m 72.98164,-33.372054 -72.98164,53.591012 v -4.036845 l 72.98164,-53.591016 z M 409.8964,44.653556 482.87804,-8.9376479 v 4.0368486 L 409.8964,48.6904 Z M 482.87804,11.281682 422.08798,55.920627 H 416.5904 L 482.87804,7.2447408 Z m 0,16.182116 -38.75286,28.456829 h -5.49745 l 44.25031,-32.493683 z m 0,16.182381 -16.7154,12.274448 h -5.49745 l 22.21285,-16.311293 z"
           fill="#6d7379"
           stroke="#313335"
           stroke-width="9.59575"
           id="path2-5"
           style="fill:#606060;fill-opacity:1;stroke:#262626;stroke-width:0.758555;stroke-dasharray:none;stroke-opacity:1" />
        <path
           id="rect1-8"
           style="fill:none;fill-opacity:1;stroke:#171717;stroke-width:1.70088;stroke-dasharray:none;stroke-opacity:1"
           d="m 482.37334,-9.0292026 v 0 -55.4484494 H 410.4011 V 55.415977 h 39.34934 23.85594 8.76696 z" />
      </g>
    </g>
  </g>
</svg>

<svg xmlns="http://www.w3.org/2000/svg" width="631.519" height="371.079" viewBox="0 0 167.09 98.181"><g style="stroke-width:.728987"><path d="M482.769-9.116v-55.978h-72.976V55.84h72.976z" style="fill:none;fill-opacity:1;stroke-width:.0778616" transform="matrix(0 -1.33145 1.3734 0 89.767 643.432)"/><g style="stroke:none;stroke-width:.729081;stroke-dasharray:none;stroke-opacity:1"><path d="M282.442 197.01h-60.293v83.34h128.388v-83.34z" style="fill:#4b4b4b;fill-opacity:1;stroke:none;stroke-width:.729081;stroke-dasharray:none;stroke-opacity:1" transform="matrix(1.27478 0 0 1.14028 -280.937 -223.532)"/></g><path fill="#6d7379" stroke="#313335" stroke-width="9.596" d="m409.896-52.44 17.08-12.542h5.498l-22.578 16.579zm39.118-12.542h5.497l-44.615 32.761v-4.037zm27.535 0L409.896-16.04v-4.037l61.155-44.906zm6.329 11.534L409.896.144v-4.037l72.982-53.592zM409.896 12.29l72.982-53.591v4.037l-72.982 53.591Zm72.982-33.372-72.982 53.591v-4.037l72.982-53.59zm-72.982 65.737 72.982-53.592V-4.9L409.896 48.69Zm72.982-33.372-60.79 44.639h-5.498l66.288-48.676Zm0 16.182L444.125 55.92h-5.497l44.25-32.494zm0 16.182-16.715 12.275h-5.498l22.213-16.312z" style="fill:#606060;fill-opacity:1;stroke:#262626;stroke-width:.758555;stroke-dasharray:none;stroke-opacity:1" transform="matrix(0 -1.33145 1.3734 0 89.767 643.432)"/><path d="M482.373-9.03v-55.448h-71.972V55.416h71.972z" style="fill:none;fill-opacity:1;stroke:#171717;stroke-width:1.70088;stroke-dasharray:none;stroke-opacity:1" transform="matrix(0 -1.33145 1.3734 0 89.767 643.432)"/></g></svg>
